!!!!SEGMENT: Wil2060-Beatus_Stephanus.krn
!!!id: Wil2060
!!!AGN: Motet
!!!SCT: Smijers (1934); Zenck (1950)
!!!voices: 4
!!!COM: Adrian Willaert
!!!OTL: Beatus Stephanus
**kern	**kern	**kern	**kern
*part4	*part3	*part2	*part1
*staff4	*staff3	*staff2	*staff1
*I"Bassus	*I"Tenor	*I"Altus	*I"Superius
*I'B	*I'T	*I'A	*I'S
*clefF4	*clefGv2	*clefGv2	*clefG2
*k[b-]	*k[b-]	*k[b-]	*k[b-]
*F:	*F:	*F:	*F:
*M2/1	*M2/1	*M2/1	*M2/1
*met(C|)	*met(C|)	*met(C|)	*met(C|)
!!section: Prima pars: Beatus Stephanus
!!!OMD: Prima pars: Beatus Stephanus
=1	=1	=1	=1
0G	1r	1r	0g
.	1G	1d	.
=2	=2	=2	=2
1G	1B-y	1d	1g
1G	1B-y	1d	1g
=3	=3	=3	=3
1.F	1.c	1.f	1.a
2F	2c	2f	2a
=4	=4	=4	=4
0D	0d	0f	0a
=5	=5	=5	=5
1.D	1.A	1.f	1.a
2D	2A	2f	2a
=6	=6	=6	=6
1D	1d	1f	1a
1F	1c	1f	1a
=7	=7	=7	=7
1C	1e	1g	1cc
1C	1e	1g	1cc
=8	=8	=8	=8
1.F	1.f	1a	1.cc
.	.	1a	.
2F	2f	.	2cc
=9	=9	=9	=9
0G	0d	0g	2.b-y
.	.	.	4a
.	.	.	1b-y
=10	=10	=10	=10
0D	1d	1f	1a
.	[1f	1a	1dd
=11	=11	=11	=11
2.F	2f]	2a	2cc
.	4e	1a	1ff
4G	4d	.	.
2A	2c	.	.
2B-y	2d	4g	4ee
.	.	4f	4dd
=12	=12	=12	=12
1G	1B-y	1g	2ee
.	.	.	1dd
1A	1c	1e	.
.	.	.	2cc
=13	=13	=13	=13
[0D	0A	2r	1dd
.	.	2f	.
.	.	2f	2r
.	.	[2a	[2ff
=14	=14	=14	=14
0D]	2r	4a]	2ff]
.	.	4g	.
.	1A	2.f	2ff
.	.	.	1ff
.	.	4e	.
.	2A	[2d	.
=15	=15	=15	=15
1r	1A	2d]	1ee
.	.	2c#i	.
1G	1B-y	1d	1dd
=16	=16	=16	=16
1.A	2c	2r	0r
.	2F	2f	.
.	2.c	2e	.
2F	.	2a	.
.	4d	.	.
=17	=17	=17	=17
1G	2e	2g	1r
.	1d	1b-y	.
1E	.	.	2r
.	2c#i	4a	[2gg
.	.	4g	.
=18	=18	=18	=18
1D	1d	2b-y	2gg]
.	.	2.a	2ff
1G	1r	.	2ee
.	.	4g	.
.	.	[2g	2dd
=19	=19	=19	=19
1A	1r	2g]	1cc
.	.	2f#i	.
2G	2r	1g	1b-y
[2B-y	[2G	.	.
=20	=20	=20	=20
4B-]	2G]	1.d	1.dd
4A	.	.	.
2F	2A	.	.
2G	2B-y	.	.
2E	2c	2e	2cc
=21	=21	=21	=21
1D	1d	2f	2b-y
.	.	2f	2a
1r	1e	2g	[1g
.	.	2c	.
=22	=22	=22	=22
1r	1.c	2r	1g]
.	.	2.e-X	.
2r	.	.	[1g
.	.	4d	.
2G	2d	2B-y	.
=23	=23	=23	=23
2c	2e	2c	2g]
2c	2f	2A	2a
1d	2.g	1G	1b-y
.	4f	.	.
=24	=24	=24	=24
2c	2e	2r	2.g
2.B-y	1d	1G	.
.	.	.	4a
.	.	.	2b-y
4A	.	.	.
2F	2c	2A	[2a
=25	=25	=25	=25
2G	2B-y	2.B-y	4a]
.	.	.	4g
2E	2G	.	1g
.	.	4c	.
1D	1A	1d	.
.	.	.	2f#i
=26	=26	=26	=26
2r	2.G	2.B-y	1g
1d	.	.	.
.	4A	4c	.
.	2B-y	2d	1r
2c	2c	2e	.
=27	=27	=27	=27
2B-y	1d	2f	1dd
4A	.	2g	.
4G	.	.	.
1A	1r	1e	1cc
=28	=28	=28	=28
1D	1A	2r	1ff
.	.	2d	.
1r	2A	2c	2ee
.	[2B-y	[2f	[2dd
=29	=29	=29	=29
1G	2B-]	2f]	2dd]
.	2B-y	2e	4cc
.	.	.	4b-y
1F	1c	1f	2a
.	.	.	2a
=30	=30	=30	=30
1.B-y	1d	1f	2b-y
.	.	.	1dd
.	2B-y	2f	.
2A	2c	2f	2cc
=31	=31	=31	=31
2.G	0d	1g	2.b-y
8FL	.	.	8aL
8EJ	.	.	8gJ
2D	.	1f	1a
2D	.	.	.
=32	=32	=32	=32
2E	2.G	2r	1g
1G	.	2.d	.
.	4A	.	.
.	4B-y	.	1r
.	4c	4e	.
2F	[2d	2f	.
=33	=33	=33	=33
2.E	4d]	2.g	0r
.	4G	.	.
.	1c	.	.
8DL	.	8fL	.
8CJ	.	8eJ	.
1D	.	1f	.
.	2BnXi	.	.
=34	=34	=34	=34
1C	1c	0e	0g
1C	2r	.	.
.	2c	.	.
=35	=35	=35	=35
0F	1c	1r	1a
.	[1A	1a	1cc
=36	=36	=36	=36
[0D	1A]	1a	2.dd
.	.	.	4ee
.	1d	2f	2ff
.	.	[2a	[2ff
=37	=37	=37	=37
1D]	2d	2a]	2ff]
.	2d	4g	4ee
.	.	4f	4dd
1r	2c	2g	2ee
.	2B-y	2g	2dd
=38	=38	=38	=38
0r	2.A	1a	2.cc
.	4B-y	.	4b-y
.	2c	1r	4a
.	.	.	4g
.	[2d	.	[2b-y
=39	=39	=39	=39
0r	2d]	0r	4b-]
.	.	.	4a
.	2c	.	1a
.	1B-y	.	.
.	.	.	2g
=40	=40	=40	=40
0r	0A	0c	2a
.	.	.	1cc
.	.	.	4b-y
.	.	.	4a
=41	=41	=41	=41
0r	2r	1d	2b-y
.	1f	.	1a
.	.	1f	.
.	4e	.	[2dd
.	4d	.	.
=42	=42	=42	=42
1r	1e	2.g	2dd]
.	.	.	2cc#i
.	.	4a	.
1G	[1d	2b-y	[1dd
.	.	[2b-y	.
=43	=43	=43	=43
2G	2d]	2b-]	1dd]
2G	4c	4a	.
.	4B-y	4g	.
2F	1c	2a	1r
2E	.	2g	.
=44	=44	=44	=44
2.D	1d	2.f	0r
4E	.	4e	.
2F	1r	4d	.
.	.	4c	.
[2G	.	[2e	.
=45	=45	=45	=45
2G]	0r	4e]	0r
.	.	4d	.
2F	.	1d	.
1E	.	.	.
.	.	2c#i	.
=46	=46	=46	=46
1D	0r	0d	0r
2r	.	.	.
2F	.	.	.
=47	=47	=47	=47
2G	0r	1d	0r
1B-y	.	.	.
.	.	1d	.
4A	.	.	.
4G	.	.	.
=48	=48	=48	=48
1A	1r	1c	2r
.	.	.	2cc
[1D	1d	[1f	2dd
.	.	.	[2ff
=49	=49	=49	=49
1D]	1d	1f]	2ff]
.	.	.	4ee
.	.	.	4dd
1r	1c	1g	1ee
=50	=50	=50	=50
0r	1d	1.f	2a
.	.	.	2a
.	2d	.	2.b-y
.	2e	2g	.
.	.	.	4cc
=51	=51	=51	=51
0r	2.f	1a	2dd
.	.	.	1cc
.	4e	.	.
.	2c	1g	.
.	[2g	.	2b-y
=52	=52	=52	=52
1r	2g]	0r	2.a
.	4f	.	.
.	4e	.	4g
2r	2.f	.	[1a
2D	.	.	.
.	4e	.	.
=53	=53	=53	=53
2.F	2d	0r	1a]
.	4c	.	.
4G	4B-y	.	.
2A	2c	.	1r
2G	2d	.	.
=54	=54	=54	=54
1.B-y	4G	1r	0r
.	4A	.	.
.	4B-y	.	.
.	4c	.	.
.	4d	1f	.
.	4e	.	.
2A	[2f	.	.
=55	=55	=55	=55
2.G	2f]	2g	0r
.	4e	1b-y	.
4F	4d	.	.
1G	1e	.	.
.	.	4a	.
.	.	4g	.
=56	=56	=56	=56
1F	0f	1a	2r
.	.	.	2a
[1B-y	.	2d	2b-y
.	.	2d	[2dd
=57	=57	=57	=57
2B-]	1d	2.f	2dd]
4A	.	.	4cc
4G	.	4g	4b-y
2F	1r	2a	2cc
[2G	.	[2g	[2b-y
=58	=58	=58	=58
4G]	0r	2g]	4b-]
4F	.	.	4a
2D	.	2f	1dd
1A	.	1e	.
.	.	.	2cc#i
=59	=59	=59	=59
1D	2r	0d	1.dd
.	2A	.	.
2r	2B-y	.	.
2D	[2d	.	4cc
.	.	.	4b-y
=60	=60	=60	=60
2.F	2d]	2r	1a
.	4c	2f	.
4G	4B-y	.	.
2A	2c	2f	2r
[2G	[2B-y	2e	2b-y
=61	=61	=61	=61
2G]	4B-]	1d	2b-y
.	4A	.	.
2F	1d	.	2a
1E	.	1G	1g
.	2c#i	.	.
=	=	=	=
00D	00d	00A	00f
=||	=||	=||	=||
*M2/1	*M2/1	*M2/1	*M2/1
*met(C|)	*met(C|)	*met(C|)	*met(C|)
!!section: Secunda pars: Et videntes vultum
!!!OMD: Secunda pars: Et videntes vultum
1.C	1.G	1.e	1.g
2C	2G	2e	2g
=62	=62	=62	=62
1C	1c	1e	1g
1D	1A	1d	1f
=63	=63	=63	=63
1F	1.A	2.c	1a
.	.	4d	.
1C	.	4e	[1cc
.	.	4f	.
.	2G	[2g	.
=64	=64	=64	=64
1F	1A	4g]	1cc]
.	.	4f	.
.	.	1f	.
1G	1B-y	.	[1b-y
.	.	2e	.
=65	=65	=65	=65
[0F	1c	0f	2b-]
.	.	.	4a
.	.	.	4g
.	1c	.	1a
=66	=66	=66	=66
0F]	2d	2r	1a
.	1c	1a	.
.	.	.	1cc
.	4B-y	2a	.
.	4A	.	.
=67	=67	=67	=67
0r	1B-y	2f	1dd
.	.	2g	.
.	[1A	1a	1cc
=68	=68	=68	=68
0D	1A]	2a	2.ff
.	.	1f	.
.	.	.	4ee
.	2r	.	4dd
.	.	.	4cc
.	[2f	[2b-y	[2dd
=69	=69	=69	=69
1F	2f]	4b-]	2dd]
.	.	4a	.
.	2f	1a	2cc
1G	2d	.	1b-y
.	2e	2g	.
=70	=70	=70	=70
1F	1f	1a	1cc
[1B-y	2f	2d	1dd
.	[2d	[2f	.
=71	=71	=71	=71
1B-]	2d]	2f]	2b-y
.	2.g	4e	1dd
.	.	4d	.
1A	.	2e	.
.	4f	.	.
.	[2f	2f	[2cc
=72	=72	=72	=72
1G	2f]	1B-y	4cc]
.	.	.	4b-y
.	2e	.	1b-y
1F	2.f	1c	.
.	.	.	2a
.	4e	.	.
=73	=73	=73	=73
1G	4d	2.g	1b-y
.	4c	.	.
.	2.d	.	.
.	.	4f	.
[1A	.	4e	1r
.	4c	4d	.
.	[2c	2f	.
=74	=74	=74	=74
2A]	4c]	2e	1.cc
.	4B-y	.	.
2F	4A	2.a	.
.	4G	.	.
1A	2F	.	.
.	.	4g	.
.	[2c	[2f	2a
=75	=75	=75	=75
1G	2c]	2f]	1b-y
.	2B-y	2e	.
[1F	2.c	1f	2.a
.	4B-y	.	4b-y
=76	=76	=76	=76
2F]	2A	1r	2cc
1B-y	2G	.	1dd
.	1F	[1f	.
2A	.	.	2cc
=77	=77	=77	=77
1B-y	0r	2f]	1dd
.	.	2d	.
1c	.	1e	2.g
.	.	.	4a
=78	=78	=78	=78
1G	0r	2.d	4b-y
.	.	.	4cc
.	.	.	1b-y
.	.	4e	.
[1d	.	2f	.
.	.	[2g	4a
.	.	.	4g
=79	=79	=79	=79
1d]	0r	2g]	1a
.	.	2f#i	.
1r	.	2g	1g
.	.	[2c	.
=80	=80	=80	=80
0r	1.c	4c]	2r
.	.	4d	.
.	.	1e	1g
.	2A	4d	2a
.	.	4c	.
=81	=81	=81	=81
1r	2B-y	1d	2f
.	2B-y	.	2g
[1F	2.A	2r	[1a
.	.	2c	.
.	4B-y	.	.
=82	=82	=82	=82
2F]	2c	2A	2a]
2D	1d	1B-y	2f
2E	.	.	1g
2E	2c#i	2G	.
=83	=83	=83	=83
2.D	0d	1.A	1.f
4E	.	.	.
2F	.	.	.
[2G	.	2B-y	4e
.	.	.	4d
=84	=84	=84	=84
2G]	1A	1c	2e
2F	.	.	2f
1G	2B-y	2.B-y	2.d
.	2G	.	.
.	.	4c	4e
=85	=85	=85	=85
2D	2A	[0d	2f
1G	1B-y	.	2g
.	.	.	2d
4F	2G	.	[2g
4E	.	.	.
=86	=86	=86	=86
1D	1A	0d]	2g]
.	.	.	2f#i
[1G	1G	.	1g
=87	=87	=87	=87
0G]	1d	1r	0r
.	2d	1g	.
.	2B-y	.	.
=88	=88	=88	=88
1C	1c	2g	1cc
.	.	2e	.
1r	1F	1f	2cc
.	.	.	2a
=89	=89	=89	=89
1G	0r	2B-y	2.b-y
.	.	1b-y	.
.	.	.	4cc
2G	.	.	2dd
2E	.	4a	[2cc
.	.	4g	.
=90	=90	=90	=90
1F	1r	0a	4cc]
.	.	.	4b-y
.	.	.	4a
.	.	.	4g
2.D	1d	.	1f
4E	.	.	.
=91	=91	=91	=91
2F	2d	0r	0r
2G	2B-y	.	.
2E	1c	.	.
[2F	.	.	.
=92	=92	=92	=92
2F]	2.A	0r	0r
4E	.	.	.
4D	4B-y	.	.
2E	2c	.	.
2F	2d	.	.
=93	=93	=93	=93
2G	2B-y	1r	0r
2C	1c	.	.
2.E	.	1g	.
.	4B-y	.	.
4F	4A	.	.
=94	=94	=94	=94
2G	2B-y	2g	0r
2A	2c	2e	.
[1D	2A	1f	.
.	[2d	.	.
=95	=95	=95	=95
1D]	4d]	2.d	1dd
.	4c	.	.
.	1B-y	.	.
.	.	4e	.
1r	.	2f	2dd
.	4A	2g	2b-y
.	4G	.	.
=96	=96	=96	=96
0r	1A	2e	1cc
.	.	1f	.
.	1r	.	2.a
.	.	4e	.
.	.	4d	4b-y
=97	=97	=97	=97
0r	0r	2e	2cc
.	.	2f	2dd
.	.	2g	2b-y
.	.	[2a	[2cc
=98	=98	=98	=98
0r	0r	4a]	2cc]
.	.	4g	.
.	.	1g	4b-y
.	.	.	4a
.	.	.	2b-y
.	.	4f	2cc
.	.	4e	.
=99	=99	=99	=99
0r	0r	4f	2dd
.	.	4e	.
.	.	4d	1cc
.	.	4c	.
.	.	1d	.
.	.	.	2bnXi
=100	=100	=100	=100
0r	0r	0c	1cc
.	.	.	1g
=101	=101	=101	=101
0r	1f	0r	2.a
.	.	.	4b-y
.	2e	.	2cc
.	2d	.	[2dd
=102	=102	=102	=102
1B-y	1f	0r	2dd]
.	.	.	4cc
.	.	.	4b-y
2A	2c	.	2cc
2G	2e	.	[2b-y
=103	=103	=103	=103
1B-y	1d	1r	2b-]
.	.	.	4a
.	.	.	4g
2F	2c	1f	1a
2A	[2c	.	.
=104	=104	=104	=104
1G	2c]	2e	1b-y
.	2B-y	2d	.
2F	2.c	1f	1a
[2F	.	.	.
.	4B-y	.	.
=105	=105	=105	=105
2F]	4A	2c	2r
.	4G	.	.
2E	1c	2e	2g
2F	.	1d	2a
2G	2B-y	.	2b-y
=106	=106	=106	=106
2.C	2G	2c	1cc
.	2.g	1c	.
4D	.	.	.
4E	.	.	2g
4F	4f	.	.
[2G	2d	2B-y	2b-y
=107	=107	=107	=107
2G]	2e	2c	1a
2F	2f	1d	.
1G	2B-y	.	2g
.	[2d	4c	[2g
.	.	4B-y	.
=108	=108	=108	=108
1A	4d]	1c	2g]
.	4c	.	.
.	1c	.	2f#i
1G	.	1d	[1g
.	2BnXi	.	.
=109	=109	=109	=109
1r	1c	1e	1g]
[1F	[1c	[1f	[1a
=110	=110	=110	=110
2F]	2c]	2f]	2a]
2F	2A	2c	2f
1F	1c	1f	1a
=111	=111	=111	=111
1G	1B-y	0d	1g
1B-y	2r	.	1f
.	[2f	.	.
=112	=112	=112	=112
2A	2f]	1r	2r
2.B-y	2d	.	1b-y
.	1f	1d	.
4c	.	.	.
[2d	.	.	2a
=113	=113	=113	=113
2d]	1e	2.g	2b-y
2c#i	.	.	2cc
.	.	4a	.
1d	[1d	2b-y	1f
.	.	[2a	.
=114	=114	=114	=114
2r	1d]	4a]	1.a
.	.	4g	.
2.D	.	1f	.
.	1f	.	.
4E	.	.	.
4F	.	4e	2a
4G	.	4d	.
=115	=115	=115	=115
2A	2e	1c	1a
2F	2f	.	.
2.G	2d	2r	1b-y
.	2g	[2d	.
4A	.	.	.
=116	=116	=116	=116
1B-y	2f	4d]	1dd
.	.	4e	.
.	2d	4f	.
.	.	4g	.
2r	2.f	2a	2cc
[2B-y	.	2f	[2dd
.	4e	.	.
=117	=117	=117	=117
2B-]	2d	2g	4dd]
.	.	.	4ee
2A	2c	2a	1ff
2B-y	2d	1g	.
2c	[2c	.	2ee
=118	=118	=118	=118
0F	4c]	1f	2.ff
.	4B-y	.	.
.	4A	.	.
.	4G	.	8eeL
.	.	.	8ddJ
.	1A	1r	1cc
=119	=119	=119	=119
1.c	2r	1.g	1r
.	1e	.	.
.	.	.	[1cc
2c	2e	2g	.
=120	=120	=120	=120
1c	1e	1g	2cc]
.	.	.	2cc
1F	1f	1a	1cc
=121	=121	=121	=121
0B-y	1d	1b-y	1f
.	1d	1f	1b-y
=122	=122	=122	=122
2.F	2c	1.f	2.a
.	1d	.	.
4E	.	.	4g
4F	.	.	4a
4G	.	.	4b-y
[2A	4c	4e	[2cc
.	4B-y	4d	.
=123	=123	=123	=123
2A]	2c	2e	4cc]
.	.	.	4b-y
4G	2d	2f	1a
4F	.	.	.
1G	1B-y	1d	.
.	.	.	2g
=124	=124	=124	=124
1D	0A	2r	0a
.	.	2f	.
1D	.	2f	.
.	.	2f	.
=125	=125	=125	=125
2D	1f	1d	1a
2D	.	.	.
1F	2f	1c	2a
.	2f	.	2a
=126	=126	=126	=126
1G	1d	1B-y	1b-y
1A	1c	1r	1cc
=127	=127	=127	=127
1r	1B-y	1f	1dd
1D	1r	2f	1r
.	.	2f	.
=128	=128	=128	=128
2D	1f	1d	1a
2D	.	.	.
1F	2f	1c	2a
.	2f	.	2a
=129	=129	=129	=129
1G	1d	1B-y	1b-y
1A	1c	1r	1cc
=130	=130	=130	=130
1.G	2.B-y	1d	2dd
.	.	.	2.b-y
.	4A	.	.
.	2B-y	2d	.
.	.	.	4a
2E	[2c	2G	[2g
=131	=131	=131	=131
1F	2c]	2.A	4g]
.	.	.	4f
.	4B-y	.	1f
.	4A	4B-y	.
1C	1G	[1c	.
.	.	.	2e
=132	=132	=132	=132
0r	1F	2c]	[0f
.	.	1d	.
.	2r	.	.
.	2B-y	4c	.
.	.	4B-y	.
=133	=133	=133	=133
1F	2c	1A	1f]
.	2d	.	.
1A	2c	1r	1r
.	[2f	.	.
=134	=134	=134	=134
1G	2f]	2r	1r
.	2e	2B-y	.
1F	1f	2c	1a
.	.	2d	.
=135	=135	=135	=135
1A	1F	2c	1cc
.	.	1f	.
1B-y	1G	.	1b-y
.	.	2e	.
=136	=136	=136	=136
1c	1F	2f	1a
.	.	1f	.
2A	1r	.	1cc
[2c	.	2e	.
=137	=137	=137	=137
2c]	0r	1d	1dd
2B-y	.	.	.
2.c	.	2c	1ee
.	.	[2cc	.
4B-y	.	.	.
=138	=138	=138	=138
4A	1f	2cc]	2cc
4G	.	.	.
2B-y	.	2b-y	2.dd
2F	1f	1a	.
.	.	.	4cc
2F	.	.	[2cc
=139	=139	=139	=139
1G	1d	1g	2cc]
.	.	.	2bnXi
1A	[1c	1r	1cc
=140	=140	=140	=140
2F	2c]	2r	0r
2.G	2B-y	2G	.
.	2c	1A	.
4F	.	.	.
[2F	2A	.	.
=141	=141	=141	=141
2F]	1G	1B-y	1g
2E	.	.	.
2F	1c	1A	1a
[2A	.	.	.
=142	=142	=142	=142
4A]	2.B-y	1d	1b-y
4G	.	.	.
1G	.	.	.
.	4A	.	.
.	2B-y	2e	2g
2F	2c	2f	[2a
=143	=143	=143	=143
2G	2B-y	0d	4a]
.	.	.	4g
4F	4A	.	1g
4E	4G	.	.
1D	1A	.	.
.	.	.	2f#i
=144	=144	=144	=144
1G	2.B-y	2.d	2g
.	.	.	2b-y
.	4G	4e	.
2r	1d	2f	2a
2G	.	2g	[2b-y
=145	=145	=145	=145
1A	1c	2e	4b-]
.	.	.	4a
.	.	1f	1a
1B-y	2r	.	.
.	2d	4e	2g
.	.	4d	.
=146	=146	=146	=146
2.A	1e	1c	2a
.	.	.	2.cc
4G	.	.	.
2A	1f	1r	.
.	.	.	4a
[2B-y	.	.	[2dd
=147	=147	=147	=147
2B-]	2d	1r	2dd]
2A	2.e	.	2cc#i
2.G	.	2r	1dd
.	4d	.	.
.	[2d	2d	.
4F	.	.	.
=148	=148	=148	=148
1E	4d]	1e	2r
.	4c#i	.	.
.	4c#i	.	2g
.	4BnXi	.	.
1D	[1d	1f	1a
=149	=149	=149	=149
1G	2d]	2d	1b-y
.	4c	1e	.
.	4B-y	.	.
2C	2c	.	2g
2F	2A	[2d	[2a
=150	=150	=150	=150
2G	2.B-y	2d]	4a]
.	.	.	4g
2E	.	2c#i	1g
.	8AL	.	.
.	8GJ	.	.
1D	1A	[1dl	.
.	.	.	2f#i
=151	=151	=151	=151
00Gl	00Gl	00d]	00gl
==	==	==	==
*-	*-	*-	*-
!!!system-decoration: [*]
!!!RDF**kern: i = editorial accidental
!!!RDF**kern: l = terminal long
!!!ENC: Benjamin Ory
!!!END: 2023/10/30
!!!EED: Benjamin Ory
!!!EEV: 2023/10/30
!!!YEC: Copyright 2023 Benjamin Ory, All Rights Reserved
!!!ONB: Translated from MusicXML on 2023/10/30
